src/basic/700/u25A1-square.svg

<svg width="17" height="20" viewBox="0 0 17 20" fill="none" xmlns="http://www.w3.org/2000/svg">
<path fill-rule="evenodd" clip-rule="evenodd" d="M0.99423,2.96094h0.5h14.00867h0.5v0.5v13.05936v0.5h-0.5h-14.00867h-0.5v-0.5v-13.05936zM1.99423,3.96094v12.05936h13.00867v-12.05936z" fill="black"/>
</svg>

<svg width="17" height="20" viewBox="0 0 17 20" fill="none" xmlns="http://www.w3.org/2000/svg">
<path fill-rule="evenodd" clip-rule="evenodd" d="M0.994228 2.96094H1.49423H15.5029H16.0029V3.46094V16.5203V17.0203H15.5029H1.49423H0.994228V16.5203V3.46094V2.96094ZM1.99423 3.96094V16.0203H15.0029V3.96094H1.99423Z" fill="black"/>
</svg>
